Cawnonical Mono-Glyph Icon Suite/packaged/Cawnonical Mono-Glyph Icon Suite Accented/actions/glyphs/notification-progress-inactive.svg

<svg height="48" opacity=".5" viewBox="0 -960 960 960" width="48" xmlns="http://www.w3.org/2000/svg">
  <defs>
    <style type="text/css" id="current-color-scheme">.ColorScheme-Highlight { color:#000000; }</style>
  </defs><path class="ColorScheme-Highlight" fill="currentColor" d="m480.27-55c-59.16 0-114.49-11.027-165.99-33.08-51.5-22.06-96.56-52.4-135.18-91.02s-68.96-83.703-91.02-135.25c-22.053-51.553-33.08-106.937-33.08-166.15s11.027-114.597 33.08-166.15c22.06-51.547 52.4-96.463 91.02-134.75s83.703-68.627 135.25-91.02c51.553-22.387 106.937-33.58 166.15-33.58s114.597 11.193 166.15 33.58c51.547 22.393 96.463 52.733 134.75 91.02s68.627 83.257 91.02 134.91c22.387 51.66 33.58 107.067 33.58 166.22 0 59.16-11.193 114.49-33.58 165.99-22.393 51.5-52.733 96.5-91.02 135-38.287 38.493-83.257 68.83-134.91 91.01-51.66 22.18-107.067 33.27-166.22 33.27z"/></svg>

<?xml version="1.0" encoding="utf-8"?>
<svg opacity="0.5" xmlns="http://www.w3.org/2000/svg" height="48" viewBox="0 -960 960 960" width="48">
  <defs>
    <style type="text/css" id="current-color-scheme">.ColorScheme-Highlight { color:#000000; }</style>
  </defs>
  <path class="ColorScheme-Highlight" fill="currentColor" d="M 480.27 -55 C 421.11 -55 365.78 -66.027 314.28 -88.08 C 262.78 -110.14 217.72 -140.48 179.1 -179.1 C 140.48 -217.72 110.14 -262.803 88.08 -314.35 C 66.027 -365.903 55 -421.287 55 -480.5 C 55 -539.713 66.027 -595.097 88.08 -646.65 C 110.14 -698.197 140.48 -743.113 179.1 -781.4 C 217.72 -819.687 262.803 -850.027 314.35 -872.42 C 365.903 -894.807 421.287 -906 480.5 -906 C 539.713 -906 595.097 -894.807 646.65 -872.42 C 698.197 -850.027 743.113 -819.687 781.4 -781.4 C 819.687 -743.113 850.027 -698.143 872.42 -646.49 C 894.807 -594.83 906 -539.423 906 -480.27 C 906 -421.11 894.807 -365.78 872.42 -314.28 C 850.027 -262.78 819.687 -217.78 781.4 -179.28 C 743.113 -140.787 698.143 -110.45 646.49 -88.27 C 594.83 -66.09 539.423 -55 480.27 -55 Z M 480 -480 Z"/>
</svg>
